icons/glyphs/glyph-ms-word.svg

<?xml version="1.0" encoding="UTF-8" standalone="no"?><svg height="16" viewBox="0 0 4.2333333 4.2333333" width="16" xmlns="http://www.w3.org/2000/svg"><sodipodi:namedview/><metadata><rdf:RDF><cc:Work><dc:format>image/svg+xml</dc:format><dc:type/><dc:title/></cc:Work></rdf:RDF></metadata><path d="m2.2646121-.0000175c-.754639.1344012-1.50981982.2627023-2.26438602.3946233 0 1.1479368-.0005091 2.2964639 0 3.4448734.7506679.1314484 1.50206202.2570268 2.25123182.3938716h.3074303v-.3938716c.4927241 0 .8851098-.0006785 1.3779137.00151.083644-.00393.1769455.00234.2488006-.048858.0576-.088095.04264-.1982179.047731-.2976588-.00727-.9697315.00311-1.93995-.00526-2.9096889.010313-.1122337-.077561-.1996373-.1897951-.1882917-.526237-.008-.9526785.0002783-1.4793882-.00263v-.3938793zm.2886386.5847942h1.3790413c.057261 0 .1033536.046093.1033536.1033537v2.8236236c0 .057261-.046093.1033536-.1033536.1033536h-1.3790413v-.3607228h1.1440318v-.2912696h-1.1440318v-.3780867h1.1440318v-.2912694h-1.1440318v-.3780868h1.1440318v-.2912695h-1.1440318v-.3780868h1.1440318v-.29126947h-1.1440318zm-.5404459.7783474c-.1112445.4769713-.2087552.9579003-.3303561 1.4319189-.0822261.042837-.2054505-.00201-.3029203.00526-.0655278-.32583-.1417215-.6498379-.2003183-.9771642-.0576005.3179954-.132475.6329143-.19843914.9489751-.09450988-.0050909-.18944198-.0108881-.28450458-.0172881-.0816734-.4331818-.1774094-.8632002-.2536864-1.2973711.084153-.00364.1687377-.00761.2529346-.010523.050691.3135444.1082892.6259306.1525878.9399552.069528-.3218936.14042129-.643914.20933822-.9658875v-.0003759c.093528-.00509.1868424-.00934.2803705-.014282.065455.3322937.1324369.664031.2033249.9948266.055637-.3416247.117135-.6818984.1766409-1.023014.098452-.00364.1970489-.00914.2950279-.015034z" fill="#d0d0d0" stroke-width=".03938"/></svg>

<?xml version="1.0" encoding="UTF-8" standalone="no"?>
<!-- Created with Inkscape (http://www.inkscape.org/) -->

<svg
     xmlns:dc="http://purl.org/dc/elements/1.1/"
     xmlns:cc="http://creativecommons.org/ns#"
     xmlns:rdf="http://www.w3.org/1999/02/22-rdf-syntax-ns#"
     xmlns:svg="http://www.w3.org/2000/svg"
     xmlns="http://www.w3.org/2000/svg"
     xmlns:sodipodi="http://sodipodi.sourceforge.net/DTD/sodipodi-0.dtd"
     xmlns:inkscape="http://www.inkscape.org/namespaces/inkscape"
     width="16"
     height="16"
     viewBox="0 0 4.2333333 4.2333333"
     version="1.1"
     id="svg8"
     inkscape:version="0.92+devel (572d1a9d8b, 2017-07-17, custom)"
     sodipodi:docname="glyph-ms-word.svg">
    <defs
         id="defs2" />
    <sodipodi:namedview
         id="base"
         pagecolor="#002466"
         bordercolor="#ffffff"
         borderopacity="0.38039216"
         inkscape:pageopacity="1"
         inkscape:pageshadow="2"
         inkscape:zoom="19.318193"
         inkscape:cx="8"
         inkscape:cy="7.9999999"
         inkscape:document-units="px"
         inkscape:current-layer="svg8"
         inkscape:document-rotation="0"
         showgrid="false"
         inkscape:showpageshadow="false"
         borderlayer="true"
         inkscape:window-width="1920"
         inkscape:window-height="1051"
         inkscape:window-x="0"
         inkscape:window-y="0"
         inkscape:window-maximized="1"
         units="px"
         inkscape:object-paths="true" />
    <metadata
         id="metadata5">
        <rdf:RDF>
            <cc:Work
                 rdf:about="">
                <dc:format>image/svg+xml</dc:format>
                <dc:type
                     rdf:resource="http://purl.org/dc/dcmitype/StillImage" />
                <dc:title></dc:title>
            </cc:Work>
        </rdf:RDF>
    </metadata>
    <path
         style="fill:#d0d0d0;stroke-width:0.03938017"
         d="M 2.2646121,-1.75e-5 C 1.5099731,0.1343837 0.75479228,0.2626848 2.2608333e-4,0.3946058 c 0,1.1479368 -5.091e-4,2.2964639 0,3.4448734 C 0.75089398,3.9709276 1.5022881,4.096506 2.2514579,4.2333508 H 2.5588882 V 3.8394792 c 0.4927241,0 0.8851098,-6.785e-4 1.3779137,0.00151 0.083644,-0.00393 0.1769455,0.00234 0.2488006,-0.048858 0.0576,-0.088095 0.04264,-0.1982179 0.047731,-0.2976588 -0.00727,-0.9697315 0.00311,-1.93995 -0.00526,-2.9096889 0.010313,-0.1122337 -0.077561,-0.1996373 -0.1897951,-0.1882917 -0.526237,-0.008 -0.9526785,2.783e-4 -1.4793882,-0.00263 V -1.75e-5 Z M 2.5532507,0.5847767 H 3.932292 c 0.057261,0 0.1033536,0.046093 0.1033536,0.1033537 V 3.511754 c 0,0.057261 -0.046093,0.1033536 -0.1033536,0.1033536 H 2.5532507 V 3.2543848 H 3.6972825 V 2.9631152 H 2.5532507 V 2.5850285 H 3.6972825 V 2.2937591 H 2.5532507 V 1.9156723 H 3.6972825 V 1.6244028 H 2.5532507 V 1.246316 H 3.6972825 V 0.95504653 H 2.5532507 Z M 2.0128048,1.3631241 C 1.9015603,1.8400954 1.8040496,2.3210244 1.6824487,2.795043 1.6002226,2.83788 1.4769982,2.793033 1.3795284,2.800303 1.3140006,2.474473 1.2378069,2.1504651 1.1792101,1.8231388 1.1216096,2.1411342 1.0467351,2.4560531 0.98077096,2.7721139 0.88626108,2.767023 0.79132898,2.7612258 0.69626638,2.7548258 0.61459298,2.321644 0.51885698,1.8916256 0.44257998,1.4574547 c 0.084153,-0.00364 0.1687377,-0.00761 0.2529346,-0.010523 0.050691,0.3135444 0.1082892,0.6259306 0.1525878,0.9399552 0.069528,-0.3218936 0.14042129,-0.643914 0.20933822,-0.9658875 v -3.759e-4 c 0.093528,-0.00509 0.1868424,-0.00934 0.2803705,-0.014282 0.065455,0.3322937 0.1324369,0.664031 0.2033249,0.9948266 0.055637,-0.3416247 0.117135,-0.6818984 0.1766409,-1.023014 0.098452,-0.00364 0.1970489,-0.00914 0.2950279,-0.015034 z"
         id="path2"
         inkscape:connector-curvature="0"
         sodipodi:nodetypes="cccccccccccccccsssscccccccccccccccccccccccccccccccccc" />
</svg>
